X:33
T:Castlerock Road
C:Damien O'Kane
Z:Gwen (2020-12)
D:Ross Ainslie, Brighde Chaimbeul & Steven Byrnes: https://www.youtube.com/watch?v=G8gDqZ_hW3k (2017)
N:Tonalité originale en fa
R:Reel
M:2/2
Q:1/2=120
K:D
|: A2AG ABdf | edef dABd | gBdg fAdf |  e2ed cBAG |
   A3 G ABdf | edef dABd | gBdg fAdf |1 edef d2dB :|2 edef d3 f |
|: gBdg fAdf | edef dABd | gBdg fed2- | dcAG ABdf |
   gBdg fAdf |1 edef dABd | gBdg fAdf | edef d3 f :|2
                edef dAAA | ABde fgaf | edef d2dc |
|: d2af dafd | edaf dafd | ddBg dBgd | cdac dacd |
   B2BA Bcde | f2f2 edBG | ABde fgaf |1 edef d2dc :|2 edef d2dB ||

